epam-assets/icon-sources/18/social-thumb-down.svg

<svg width="18" height="18" viewBox="0 0 18 18" fill="none" xmlns="http://www.w3.org/2000/svg">
<g id="18/social-thumb-down">
<path id="icon" d="M4.5 2.25H12V12L6.75 17.25L5.8125 16.3125C5.725 16.225 5.65325 16.1062 5.59725 15.9562C5.54075 15.8062 5.5125 15.6625 5.5125 15.525V15.2625L6.3375 12H2.25C1.85 12 1.5 11.85 1.2 11.55C0.9 11.25 0.75 10.9 0.75 10.5V9C0.75 8.9125 0.7595 8.81875 0.7785 8.71875C0.797 8.61875 0.825 8.525 0.8625 8.4375L3.1125 3.15C3.225 2.9 3.4125 2.6875 3.675 2.5125C3.9375 2.3375 4.2125 2.25 4.5 2.25ZM13.5 12V2.25H16.5V12H13.5Z" fill="#6C6F80"/>
</g>
</svg>

<svg xmlns="http://www.w3.org/2000/svg" width="18" height="18" fill="none" viewBox="0 0 18 18">
  <path fill="#6C6F80" d="M4.5 2.25H12V12l-5.25 5.25-.938-.938a.981.981 0 0 1-.215-.356 1.222 1.222 0 0 1-.085-.431v-.263L6.338 12H2.25c-.4 0-.75-.15-1.05-.45-.3-.3-.45-.65-.45-1.05V9a1.511 1.511 0 0 1 .113-.563l2.25-5.287c.112-.25.3-.462.562-.637.263-.175.538-.263.825-.263Zm9 9.75V2.25h3V12h-3Z"/>
</svg>
